release/img/diploma_icon.svg

<svg width="58" height="58" viewBox="0 0 58 58" fill="none" xmlns="http://www.w3.org/2000/svg">
<path d="M43.5588 51.8712H42.5662C42.3824 51.7361 42.1618 51.6009 41.9779 51.4996C41.9412 51.4996 41.9044 51.4658 41.8676 51.4321L41.6838 51.3307L41.5735 51.2632C40.5073 50.5876 39.4412 49.9458 38.375 49.304C36.9412 50.1822 35.5074 51.0267 34.0735 51.9049H33.3015C32.4926 51.6009 32.1985 51.0267 32.2353 50.2498C32.2353 48.088 32.2353 45.9262 32.2353 43.7643V43.2914C30.9485 43.2914 29.7353 43.2914 28.4853 43.2914C20.7647 43.2914 13.0809 43.2914 5.36028 43.2914C4.84557 43.2914 4.22058 42.9537 4.11029 42.4132C4.11029 42.2781 4.03676 42.1768 4 42.0416C4 30.3205 4 18.5994 4 6.87825C4.25735 6.47291 4.58821 6.13511 5.06615 6C5.28674 6 5.50738 6 5.6912 6C21.2059 6 36.7206 6 52.2721 6C52.4559 6 52.6397 6 52.8235 6C53.4117 6.16889 53.7794 6.54045 54 7.08091C54 7.2498 54 7.4187 54 7.58759C54 18.9709 54 30.3543 54 41.7038C54 41.8052 54 41.9065 54 42.0079C53.9265 42.7172 53.2647 43.2914 52.4559 43.2914C49.9559 43.2914 47.4926 43.2914 44.9926 43.2914C44.8823 43.2914 44.7352 43.2914 44.5882 43.2914C44.5882 45.5208 44.5882 47.7164 44.5882 49.912C44.5882 50.7565 44.4044 51.4658 43.522 51.9049L43.5588 51.8712ZM35.0662 24.4093C35.0294 23.9364 34.5515 23.3959 34.1103 23.3284C33.6691 23.2946 33.2279 23.227 32.7868 23.227C27.0515 23.227 21.3162 23.227 15.5441 23.227C15.1397 23.227 14.7721 23.2946 14.3677 23.3959C13.3383 23.6324 13.0441 24.7471 13.7426 25.4564C14.147 25.8618 14.625 25.9293 15.1764 25.9293C21.2058 25.9293 27.2353 25.9293 33.2647 25.9293C34.2574 25.9293 35.0294 25.5577 35.103 24.5106C35.103 24.5106 35.0662 24.4431 35.0294 24.4093H35.0662ZM13.6691 16.6064L13.853 16.8767C13.853 16.8767 14.0367 17.0118 14.147 17.0456C14.2573 17.1131 14.3309 17.1469 14.4412 17.2145C14.7353 17.2145 14.9927 17.2145 15.2868 17.2145C24.4044 17.2145 33.5221 17.2145 42.6765 17.2145C42.8603 17.2145 43.0441 17.2145 43.2279 17.2145C43.8897 17.1807 44.2941 16.8429 44.5147 16.3024C44.6985 15.8295 44.5882 15.3904 44.1838 15.0189C43.7427 14.6135 43.1911 14.5797 42.6397 14.5797C33.5588 14.5797 24.4412 14.5797 15.3603 14.5797C15.1397 14.5797 14.9191 14.5797 14.6985 14.5797C13.7427 14.6473 13.0073 15.7958 13.7059 16.5727L13.6691 16.6064ZM44.147 34.0024C44.147 34.0024 44.1103 33.9348 44.0735 33.901C44.0367 33.8335 44 33.7321 43.9632 33.6646C42.4191 30.861 39.4412 29.8814 36.4632 30.7258C33.5221 31.5365 31.647 34.4415 32.4191 37.414C32.3823 37.414 32.3456 37.414 32.3088 37.4478C32.3456 37.4478 32.3823 37.4478 32.4191 37.4815C32.9706 39.1367 34.0368 40.3865 35.7279 41.1972C36.9412 41.7714 38.2279 41.7376 39.5147 41.6701C39.8088 41.6701 40.1397 41.4336 40.4338 41.3323C40.5809 41.2647 40.7647 41.2309 40.9117 41.1634C42.4926 40.5554 43.5588 39.4745 44.1103 38.022C44.2573 37.6167 44.5882 37.2113 44.2941 36.7722C44.3677 36.7046 44.4411 36.6371 44.4779 36.6033C44.4779 36.0966 44.4779 35.59 44.3676 35.1171C44.3308 34.7455 44.1838 34.3739 44.0735 34.0361L44.147 34.0024ZM19.7353 34.5428C21.2426 34.5428 22.7132 34.5428 24.2206 34.5428C24.8088 34.5428 25.2868 34.3064 25.5441 33.8335C25.8015 33.3606 25.7647 32.8877 25.4706 32.4486C25.1397 31.9757 24.5882 31.8743 24.0367 31.8743C21.0956 31.8743 18.1544 31.8743 15.2132 31.8743C14.9191 31.8743 14.625 31.9419 14.3309 32.0094C13.7794 32.1445 13.6324 32.5499 13.4486 32.989C13.3015 33.4619 13.7059 34.3401 14.1838 34.4077C14.5515 34.4753 14.9559 34.509 15.3603 34.509C16.7941 34.509 18.2647 34.509 19.6985 34.509L19.7353 34.5428Z" fill="white"/>
<path d="M4.11029 42.3453C4.11029 42.3453 4.03676 42.3453 4 42.3453C4 42.2102 4 42.1089 4 41.9738C4 42.1089 4.07352 42.2102 4.11029 42.3453Z" fill="white"/>
<path d="M40.4336 41.3657C40.4336 41.3657 40.7644 41.2643 40.9115 41.1968C40.7644 41.2643 40.5807 41.2981 40.4336 41.3657Z" fill="white"/>
<path d="M44.332 36.8056C44.332 36.8056 44.4791 36.6705 44.5159 36.6367C44.4423 36.7043 44.3688 36.7718 44.332 36.8056Z" fill="white"/>
<path d="M32.4189 37.4136C32.4189 37.4136 32.4189 37.4811 32.4189 37.5149C32.3821 37.5149 32.3454 37.5149 32.3086 37.4811C32.3454 37.4811 32.3821 37.4811 32.4189 37.4473V37.4136Z" fill="white"/>
<path d="M41.6845 51.2975C41.6845 51.2975 41.611 51.2638 41.5742 51.23C41.611 51.23 41.6477 51.2638 41.6845 51.2975Z" fill="white"/>
<path d="M41.9775 51.5002C41.9775 51.5002 41.904 51.4664 41.8672 51.4326C41.904 51.4326 41.9407 51.4664 41.9775 51.5002Z" fill="white"/>
<path d="M35.14 24.5115C35.14 24.5115 35.1032 24.4439 35.0664 24.4102C35.0664 24.4102 35.1032 24.4777 35.14 24.5115Z" fill="white"/>
<path d="M44.1478 34.0364C44.1478 34.0364 44.111 33.9688 44.0742 33.9351C44.0742 33.9351 44.111 34.0026 44.1478 34.0364Z" fill="white"/>
</svg>

<svg xmlns="http://www.w3.org/2000/svg" width="58" height="58" fill="none" viewBox="0 0 58 58">
  <path fill="#fff" d="M43.559 51.871h-.993a5.64 5.64 0 0 0-.588-.371c-.037 0-.074-.034-.11-.068l-.184-.101-.11-.068a162.71 162.71 0 0 0-3.199-1.959c-1.434.878-2.868 1.723-4.301 2.6H33.3c-.808-.303-1.102-.877-1.066-1.654v-6.96H5.36c-.514 0-1.14-.337-1.25-.878 0-.135-.073-.236-.11-.371V6.878c.257-.405.588-.743 1.066-.878h47.758c.588.169.955.54 1.176 1.08v34.929c-.074.71-.735 1.283-1.544 1.283h-7.868v6.621c0 .845-.184 1.554-1.066 1.993l.037-.034ZM35.066 24.41c-.037-.473-.515-1.013-.956-1.08-.44-.034-.882-.102-1.323-.102H15.544c-.404 0-.772.068-1.176.169-1.03.236-1.324 1.351-.625 2.06.404.406.882.473 1.433.473h18.089c.992 0 1.764-.371 1.838-1.418 0 0-.037-.068-.074-.102h.037ZM13.67 16.606l.184.27s.184.136.294.17c.11.067.184.1.294.169h28.786c.663-.034 1.067-.372 1.288-.913.184-.473.073-.912-.331-1.283-.441-.405-.993-.44-1.544-.44H14.698c-.955.068-1.69 1.217-.992 1.994l-.037.033Zm30.478 17.396s-.037-.067-.073-.101c-.037-.068-.074-.169-.11-.236-1.545-2.804-4.523-3.784-7.5-2.94-2.942.811-4.817 3.716-4.045 6.689-.037 0-.073 0-.11.034.037 0 .073 0 .11.033.552 1.656 1.618 2.905 3.309 3.716 1.213.574 2.5.54 3.787.473.294 0 .625-.236.919-.338.147-.067.33-.101.478-.169 1.58-.608 2.647-1.688 3.198-3.141.147-.405.478-.81.184-1.25l.184-.169c0-.506 0-1.013-.11-1.486-.037-.371-.184-.743-.294-1.08l.073-.035Zm-24.412.54h4.486c.588 0 1.066-.236 1.323-.709.258-.472.22-.945-.073-1.384-.331-.473-.883-.575-1.434-.575h-8.824c-.294 0-.588.068-.882.135-.552.136-.699.54-.882.98-.147.473.257 1.351.735 1.419a6.66 6.66 0 0 0 1.176.101h4.338l.037.034Z"/>
  <path fill="#fff" d="M4.11 42.345H4v-.371c0 .135.074.236.11.371Zm36.324-.979s.33-.102.477-.17c-.147.068-.33.102-.477.17Zm3.898-4.56.184-.17-.184.17Zm-11.913.608v.1c-.037 0-.074 0-.11-.033.036 0 .073 0 .11-.034v-.033Zm9.265 13.883s-.073-.033-.11-.067c.037 0 .074.034.11.068Zm.293.203s-.073-.034-.11-.067c.037 0 .074.033.11.067ZM35.14 24.512s-.037-.068-.074-.102c0 0 .037.068.074.102Zm9.008 9.524s-.037-.067-.074-.1c0 0 .037.067.074.1Z"/>
</svg>
